svg/icon/ast.svg

<svg xmlns="http://www.w3.org/2000/svg" xmlns:xlink="http://www.w3.org/1999/xlink" width="32" height="32" viewBox="0 0 32 32"><defs><linearGradient id="ast-c" x1="50%" x2="50%" y1="0%" y2="100%"><stop offset="0%" stop-color="#FFF" stop-opacity=".5"/><stop offset="100%" stop-opacity=".5"/></linearGradient><circle id="ast-b" cx="16" cy="15" r="15"/><filter id="ast-a" width="111.7%" height="111.7%" x="-5.8%" y="-4.2%" filterUnits="objectBoundingBox"><feOffset dy=".5" in="SourceAlpha" result="shadowOffsetOuter1"/><feGaussianBlur in="shadowOffsetOuter1" result="shadowBlurOuter1" stdDeviation=".5"/><feComposite in="shadowBlurOuter1" in2="SourceAlpha" operator="out" result="shadowBlurOuter1"/><feColorMatrix in="shadowBlurOuter1" values="0 0 0 0 0 0 0 0 0 0 0 0 0 0 0 0 0 0 0.199473505 0"/></filter><path id="ast-e" d="M16.01,5 L26,15.1401015 L25.6252,15.4803046 C25.4576,15.6405076 25.2801,15.7906599 25.0927,15.9408122 C24.7669,16.2011168 24.4221,16.4613198 24.0769,16.6915736 C22.6666,17.6425381 21.1183,18.333198 19.4812,18.7336041 C18.3447185,19.0137677 17.1793059,19.1549057 16.0098,19.1540102 C14.5308,19.1540102 13.0608,18.9338071 11.6508,18.4833503 C10.2105999,18.0318166 8.84942634,17.3528397 7.6173,16.4713706 C7.2919,16.2311675 6.9664,15.9809137 6.6607,15.7206091 C6.5621,15.6406091 6.4734,15.5605076 6.3846,15.4804061 L6,15.1401015 L7.0947,14.0290355 L16.01,5 Z M24.7477,15.4704569 L24.7475,15.4704569 C24.8955,15.3503553 25.0434,15.2302538 25.1716,15.1001015 L16,5.81076142 L6.8285,15.0998985 L7.0159,15.2601015 C7.3216,15.5104569 7.6273,15.7607107 7.9429,15.9809137 C10.3020741,17.6722859 13.1218978,18.5750021 16.01,18.5634518 C17.1365382,18.5621719 18.2589031,18.4244474 19.3533,18.153198 C20.927138,17.7649249 22.4222311,17.1010045 23.7714,16.191269 C24.1093878,15.9690319 24.4352966,15.7284101 24.7477,15.4704569 Z M9.7179,14.9898477 C11.6523611,14.1286214 13.7401352,13.6789669 15.8524,13.6686294 C18.3376,13.6686294 20.7834,14.3293401 22.9234,15.5905584 L23.0615,15.6706599 L22.9234,15.7607107 C21.5059336,16.6697655 19.9286178,17.2918216 18.2784,17.5925888 L18.239,17.6027411 L18.209,17.5824365 C15.6831381,16.0114888 12.778657,15.1800522 9.8165,15.18 L9.2741,15.18 L9.7179,14.9898477 Z M18.357,16.9918782 L18.3573,16.9922843 C19.6095,16.7520812 20.8028,16.3216244 21.9073,15.7010152 C20.0237,14.7396954 17.9522,14.2492386 15.8422,14.2492386 C14.5728875,14.248193 13.3091655,14.4199085 12.0848,14.759797 C14.3040741,15.059739 16.4389616,15.8194792 18.357,16.9918782 Z M21.6608,18.9639594 C21.217,19.5645685 20.7436,20.1551269 20.2408,20.715736 L16.01,25 L13.0316,21.9869036 L13.6628,21.9469036 C15.7661187,21.8176542 17.8130291,21.2049773 19.649,20.1551269 C20.2008,19.8848731 21.6608,18.9639594 21.6608,18.9639594 Z M14.3137,22.4675127 L16.01,24.1892386 L19.008,21.1461929 C17.5287,21.8568528 15.9409,22.2973604 14.3137,22.4675127 Z"/><filter id="ast-d" width="117.5%" height="117.5%" x="-8.8%" y="-6.2%" filterUnits="objectBoundingBox"><feOffset dy=".5" in="SourceAlpha" result="shadowOffsetOuter1"/><feGaussianBlur in="shadowOffsetOuter1" result="shadowBlurOuter1" stdDeviation=".5"/><feColorMatrix in="shadowBlurOuter1" values="0 0 0 0 0 0 0 0 0 0 0 0 0 0 0 0 0 0 0.204257246 0"/></filter></defs><g fill="none" fill-rule="evenodd"><use fill="#000" filter="url(#ast-a)" xlink:href="#ast-b"/><use fill="#0061FF" xlink:href="#ast-b"/><use fill="url(#ast-c)" style="mix-blend-mode:soft-light" xlink:href="#ast-b"/><circle cx="16" cy="15" r="14.5" stroke="#000" stroke-opacity=".097"/><g fill-rule="nonzero"><use fill="#000" filter="url(#ast-d)" xlink:href="#ast-e"/><use fill="#FFF" fill-rule="evenodd" xlink:href="#ast-e"/></g></g></svg>

<svg xmlns="http://www.w3.org/2000/svg" xmlns:xlink="http://www.w3.org/1999/xlink" width="32" height="32" viewBox="0 0 32 32"><defs><linearGradient id="c" x1="50%" x2="50%" y1="0%" y2="100%"><stop offset="0%" stop-color="#FFF" stop-opacity=".5"/><stop offset="100%" stop-opacity=".5"/></linearGradient><circle id="b" cx="16" cy="15" r="15"/><filter id="a" width="111.7%" height="111.7%" x="-5.8%" y="-4.2%" filterUnits="objectBoundingBox"><feOffset dy=".5" in="SourceAlpha" result="shadowOffsetOuter1"/><feGaussianBlur in="shadowOffsetOuter1" result="shadowBlurOuter1" stdDeviation=".5"/><feComposite in="shadowBlurOuter1" in2="SourceAlpha" operator="out" result="shadowBlurOuter1"/><feColorMatrix in="shadowBlurOuter1" values="0 0 0 0 0 0 0 0 0 0 0 0 0 0 0 0 0 0 0.199473505 0"/></filter><path id="e" d="M16.01 5L26 15.14l-.375.34a7.99 7.99 0 0 1-.532.46c-.326.261-.67.521-1.016.752a14.275 14.275 0 0 1-4.596 2.042c-1.136.28-2.302.42-3.471.42-1.48 0-2.95-.22-4.36-.67a14.27 14.27 0 0 1-4.033-2.013 17.925 17.925 0 0 1-1.232-.99L6 15.14l1.095-1.112L16.01 5zm8.738 10.47c.147-.12.295-.24.424-.37L16 5.81 6.829 15.1l.187.16c.306.25.611.5.927.72a13.747 13.747 0 0 0 8.067 2.583 13.962 13.962 0 0 0 3.343-.41 13.826 13.826 0 0 0 4.418-1.962c.338-.222.664-.463.977-.72zm-15.03-.48a15.263 15.263 0 0 1 6.134-1.321c2.486 0 4.931.66 7.071 1.922l.139.08-.139.09a12.883 12.883 0 0 1-4.645 1.832l-.039.01-.03-.02a15.887 15.887 0 0 0-8.393-2.403h-.542l.444-.19zm8.639 2.002c1.253-.24 2.446-.67 3.55-1.291a13.312 13.312 0 0 0-6.065-1.452c-1.27 0-2.533.17-3.757.51 2.22.3 4.354 1.06 6.272 2.233zm3.304 1.972a23.88 23.88 0 0 1-1.42 1.752L16.01 25l-2.978-3.013.63-.04a13.766 13.766 0 0 0 5.987-1.792c.552-.27 2.012-1.191 2.012-1.191zm-7.347 3.504l1.696 1.721 2.998-3.043a14.252 14.252 0 0 1-4.694 1.322z"/><filter id="d" width="117.5%" height="117.5%" x="-8.8%" y="-6.2%" filterUnits="objectBoundingBox"><feOffset dy=".5" in="SourceAlpha" result="shadowOffsetOuter1"/><feGaussianBlur in="shadowOffsetOuter1" result="shadowBlurOuter1" stdDeviation=".5"/><feColorMatrix in="shadowBlurOuter1" values="0 0 0 0 0 0 0 0 0 0 0 0 0 0 0 0 0 0 0.204257246 0"/></filter></defs><g fill="none" fill-rule="evenodd"><use fill="#000" filter="url(#a)" xlink:href="#b"/><use fill="#0061FF" xlink:href="#b"/><use fill="url(#c)" style="mix-blend-mode:soft-light" xlink:href="#b"/><circle cx="16" cy="15" r="14.5" stroke="#000" stroke-opacity=".097"/><g fill-rule="nonzero"><use fill="#000" filter="url(#d)" xlink:href="#e"/><use fill="#FFF" fill-rule="evenodd" xlink:href="#e"/></g></g></svg>
